;Generated with Cura_SteamEngine DEV
;-- START GCODE --
;Sliced for Type A Machines Series 1
;Sliced at: {day} {date} {time}
;Basic settings: Layer height: {layer_height} Walls: {wall_thickness} Fill: {fill_density}
;Print Speed: {print_speed} Support: {support}
;Retraction Speed: {retraction_speed} Retraction Distance: {retraction_amount}
;Print time: {print_time}
;Filament used: {filament_amount}m {filament_weight}g
;Filament cost: {filament_cost}
M106 S255    ;start with the fan on
G21        ;metric values
G90        ;absolute positioning
M106 S255    ;start with the fan on
G28     ;move to endstops
G29     ;allows for auto-levelling
G1 X150 Y5  Z15.0 F12000 ;center and move the platform down 15mm
M109 S230 ;Heat To temp
G92 E0                  ;zero the extruded length
G1 F200 E30              ;extrude 30mm of feed stock
G92 E0                  ;zero the extruded length again
G1 X175 Y25  Z0 F12000 ;remove bugger
G1 X220 F12000 ;remove bugger
G1 X150 Y150  Z15 F12000 ;recenter and begin
G1 F12000

;Layer count: 90
;LAYER:0
M107
G1 F1800 E-1.80000
G0 F12000 X117.860 Y118.114 Z0.200
;TYPE:WALL-INNER
G1 F1800 E0.00000
G1 F1200 X127.140 Y118.114 E0.18519
G1 X127.140 Y126.154 E0.34564
G1 X117.860 Y126.154 E0.53083
G1 X117.860 Y118.114 E0.69128
G0 F12000 X117.620 Y117.874
;TYPE:WALL-OUTER
G1 F1200 X127.380 Y117.874 E0.88605
G1 X127.380 Y126.394 E1.05608
G1 X117.620 Y126.394 E1.25085
G1 X117.620 Y117.874 E1.42087
G0 F12000 X118.028 Y118.197
;TYPE:SKIN
G1 F1200 X125.899 Y126.069 E1.64302
G0 F12000 X125.560 Y126.069
G1 F1200 X117.943 Y118.453 E1.85798
G0 F12000 X117.943 Y118.792
G1 F1200 X125.220 Y126.069 E2.06335
G0 F12000 X124.881 Y126.069
G1 F1200 X117.943 Y119.131 E2.25916
G0 F12000 X117.943 Y119.471
G1 F1200 X124.542 Y126.069 E2.44538
G0 F12000 X124.202 Y126.069
G1 F1200 X117.943 Y119.810 E2.62202
G1 F1800 E0.82202
G0 F12000 X118.367 Y118.197
G1 F1800 E2.62202
G1 F1200 X126.239 Y126.069 E2.84419
G0 F12000 X126.578 Y126.069
G1 F1200 X118.706 Y118.197 E3.06635
G0 F12000 X119.046 Y118.197
G1 F1200 X126.917 Y126.069 E3.28850
G0 F12000 X127.055 Y125.867
G1 F1200 X119.385 Y118.197 E3.50497
G0 F12000 X119.725 Y118.197
G1 F1200 X127.055 Y125.528 E3.71185
G0 F12000 X127.055 Y125.189
G1 F1200 X120.064 Y118.197 E3.90916
G0 F12000 X120.404 Y118.197
G1 F1200 X127.055 Y124.849 E4.09688
G0 F12000 X127.055 Y124.510
G1 F1200 X120.743 Y118.197 E4.27504
G0 F12000 X121.082 Y118.197
G1 F1200 X127.055 Y124.170 E4.44361
G0 F12000 X127.055 Y123.831
G1 F1200 X121.422 Y118.197 E4.60260
G0 F12000 X121.761 Y118.197
G1 F1200 X127.055 Y123.491 E4.75201
G0 F12000 X127.055 Y123.152
G1 F1200 X122.101 Y118.197 E4.89183
G0 F12000 X122.440 Y118.197
G1 F1200 X127.055 Y122.813 E5.02209
G0 F12000 X127.055 Y122.473
G1 F1200 X122.779 Y118.197 E5.14277
G0 F12000 X123.119 Y118.197
G1 F1200 X127.055 Y122.134 E5.25387
G0 F12000 X127.055 Y121.794
G1 F1200 X123.458 Y118.197 E5.35538
G0 F12000 X123.798 Y118.197
G1 F1200 X127.055 Y121.455 E5.44731
G0 F12000 X127.055 Y121.116
G1 F1200 X124.137 Y118.197 E5.52968
G0 F12000 X124.476 Y118.197
G1 F1200 X127.055 Y120.776 E5.60247
G0 F12000 X127.055 Y120.437
G1 F1200 X124.816 Y118.197 E5.66567
G0 F12000 X125.155 Y118.197
G1 F1200 X127.055 Y120.097 E5.71929
G1 F1800 E3.91929
G0 F12000 X123.863 Y126.069
G1 F1800 E5.71929
G1 F1200 X117.943 Y120.150 E5.88635
G0 F12000 X117.943 Y120.489
G1 F1200 X123.523 Y126.069 E6.04383
G0 F12000 X123.184 Y126.069
G1 F1200 X117.943 Y120.828 E6.19174
G0 F12000 X117.943 Y121.168
G1 F1200 X122.844 Y126.069 E6.33006
G0 F12000 X122.505 Y126.069
G1 F1200 X117.943 Y121.507 E6.45881
G0 F12000 X117.943 Y121.847
G1 F1200 X122.165 Y126.068 E6.57795
G0 F12000 X121.826 Y126.068
G1 F1200 X117.943 Y122.186 E6.68752
G0 F12000 X117.943 Y122.526
G1 F1200 X121.486 Y126.068 E6.78750
G0 F12000 X121.147 Y126.068
G1 F1200 X117.943 Y122.865 E6.87791
G0 F12000 X117.943 Y123.204
G1 F1200 X120.807 Y126.068 E6.95874
G0 F12000 X120.468 Y126.068
G1 F1200 X117.943 Y123.544 E7.02999
G0 F12000 X117.943 Y123.883
G1 F1200 X120.128 Y126.068 E7.09165
G0 F12000 X119.789 Y126.068
G1 F1200 X117.943 Y124.223 E7.14373
G0 F12000 X117.943 Y124.562
G1 F1200 X119.450 Y126.068 E7.18625
G0 F12000 X119.110 Y126.068
G1 F1200 X117.943 Y124.901 E7.21919
G0 F12000 X117.943 Y125.241
G1 F1200 X118.771 Y126.068 E7.24254
G0 F12000 X118.431 Y126.068
G1 F1200 X117.943 Y125.580 E7.25631
G0 F12000 X117.943 Y125.920
G1 F1200 X118.092 Y126.068 E7.26050
G1 F1800 E5.46050
G0 F12000 X125.495 Y118.197
G1 F1800 E7.26050
G1 F1200 X127.055 Y119.758 E7.30454
G0 F12000 X127.055 Y119.419
G1 F1200 X125.834 Y118.197 E7.33902
G0 F12000 X126.174 Y118.197
G1 F1200 X127.055 Y119.079 E7.36390
G0 F12000 X127.055 Y118.740
G1 F1200 X126.513 Y118.197 E7.37921
G0 F12000 X126.852 Y118.197
G1 F1200 X127.055 Y118.400 E7.38494
;LAYER:1
M106 S17
G0 F12000 X126.900 Y118.354 Z0.400
;TYPE:WALL-INNER
G1 F1200 X126.900 Y125.935 E7.63708
G1 X118.100 Y125.935 E7.92977
G1 X118.100 Y118.354 E8.18191
G1 X126.900 Y118.354 E8.47460
G0 F12000 X127.300 Y117.954
;TYPE:WALL-OUTER
G1 F1200 X127.300 Y126.335 E8.75336
G1 X117.700 Y126.335 E9.07265
G1 X117.700 Y117.954 E9.35141
G1 X127.300 Y117.954 E9.67070
G0 F12000 X126.731 Y118.493
;TYPE:SKIN
G1 F1200 X119.429 Y125.795 E10.01417
G0 F12000 X119.995 Y125.795
G1 F1200 X126.758 Y119.031 E10.33230
G0 F12000 X126.758 Y119.597
G1 F1200 X120.560 Y125.795 E10.62384
G0 F12000 X121.126 Y125.795
G1 F1200 X126.758 Y120.162 E10.88877
G0 F12000 X126.758 Y120.728
G1 F1200 X121.692 Y125.795 E11.12709
G0 F12000 X122.258 Y125.795
G1 F1200 X126.758 Y121.294 E11.33878
G0 F12000 X126.758 Y121.859
G1 F1200 X122.823 Y125.795 E11.52389
G0 F12000 X123.389 Y125.795
G1 F1200 X126.758 Y122.425 E11.68238
G0 F12000 X126.758 Y122.991
G1 F1200 X123.955 Y125.795 E11.81425
G0 F12000 X124.520 Y125.795
G1 F1200 X126.758 Y123.557 E11.91952
G0 F12000 X126.758 Y124.122
G1 F1200 X125.086 Y125.795 E11.99819
G0 F12000 X125.652 Y125.795
G1 F1200 X126.758 Y124.688 E12.05023
G0 F12000 X126.758 Y125.254
G1 F1200 X126.217 Y125.795 E12.07568
G1 F1800 E10.27568
G0 F12000 X126.165 Y118.493
G1 F1800 E12.07568
G1 F1200 X118.863 Y125.795 E12.41914
G0 F12000 X118.298 Y125.795
G1 F1200 X125.599 Y118.493 E12.76258
G0 F12000 X125.034 Y118.493
G1 F1200 X118.240 Y125.287 E13.08215
G0 F12000 X118.240 Y124.721
G1 F1200 X124.468 Y118.493 E13.37510
G0 F12000 X123.902 Y118.493
G1 F1200 X118.240 Y124.155 E13.64142
G0 F12000 X118.240 Y123.590
G1 F1200 X123.337 Y118.493 E13.88117
G0 F12000 X122.771 Y118.493
G1 F1200 X118.240 Y123.024 E14.09429
G0 F12000 X118.240 Y122.458
G1 F1200 X122.205 Y118.493 E14.28079
G0 F12000 X121.640 Y118.493
G1 F1200 X118.240 Y121.893 E14.44072
G0 F12000 X118.240 Y121.327
G1 F1200 X121.074 Y118.493 E14.57402
G0 F12000 X120.508 Y118.493
G1 F1200 X118.240 Y120.761 E14.68070
G0 F12000 X118.240 Y120.196
G1 F1200 X119.942 Y118.493 E14.76078
G0 F12000 X119.377 Y118.493
G1 F1200 X118.240 Y119.630 E14.81426
G0 F12000 X118.240 Y119.064
G1 F1200 X118.811 Y118.493 E14.84112
;LAYER:2
M106 S35
G0 F12000 X118.100 Y118.354 Z0.600
;TYPE:WALL-INNER
G1 F1200 X126.900 Y118.354 E15.13381
G1 X126.900 Y125.956 E15.38665
G1 X118.100 Y125.956 E15.67934
G1 X118.100 Y118.354 E15.93219
G0 F12000 X117.700 Y117.954
;TYPE:WALL-OUTER
G1 F1200 X127.300 Y117.954 E16.25148
G1 X127.300 Y126.356 E16.53094
G1 X117.700 Y126.356 E16.85023
G1 X117.700 Y117.954 E17.12969
G0 F12000 X118.239 Y118.522
;TYPE:SKIN
G1 F1200 X125.532 Y125.815 E17.47273
G0 F12000 X124.966 Y125.815
G1 F1200 X118.239 Y119.088 E17.78914
G0 F12000 X118.239 Y119.653
G1 F1200 X124.401 Y125.815 E18.07898
G0 F12000 X123.835 Y125.815
G1 F1200 X118.239 Y120.219 E18.34220
G0 F12000 X118.239 Y120.785
G1 F1200 X123.269 Y125.815 E18.57880
G0 F12000 X122.704 Y125.815
G1 F1200 X118.239 Y121.350 E18.78882
G0 F12000 X118.239 Y121.916
G1 F1200 X122.138 Y125.815 E18.97222
G0 F12000 X121.572 Y125.815
G1 F1200 X118.239 Y122.482 E19.12899
G0 F12000 X118.239 Y123.047
G1 F1200 X121.007 Y125.815 E19.25919
G0 F12000 X120.441 Y125.815
G1 F1200 X118.239 Y123.613 E19.36276
G0 F12000 X118.239 Y124.179
G1 F1200 X119.875 Y125.815 E19.43972
G0 F12000 X119.310 Y125.815
G1 F1200 X118.239 Y124.744 E19.49009
G0 F12000 X118.239 Y125.310
G1 F1200 X118.744 Y125.815 E19.51385
G1 F1800 E17.71385
G0 F12000 X118.776 Y118.494
G1 F1800 E19.51385
G1 F1200 X126.098 Y125.815 E19.85823
G0 F12000 X126.664 Y125.815
G1 F1200 X119.342 Y118.494 E20.20261
G0 F12000 X119.908 Y118.494
G1 F1200 X126.759 Y125.345 E20.52486
G0 F12000 X126.759 Y124.779
G1 F1200 X120.474 Y118.494 E20.82049
G0 F12000 X121.039 Y118.494
G1 F1200 X126.759 Y124.213 E21.08951
G0 F12000 X126.759 Y123.648
G1 F1200 X121.605 Y118.494 E21.33194
G0 F12000 X122.171 Y118.494
G1 F1200 X126.759 Y123.082 E21.54775
G0 F12000 X126.759 Y122.516
G1 F1200 X122.736 Y118.494 E21.73695
G0 F12000 X123.302 Y118.494
G1 F1200 X126.759 Y121.951 E21.89956
G0 F12000 X126.759 Y121.385
G1 F1200 X123.868 Y118.494 E22.03554
G0 F12000 X124.433 Y118.494
G1 F1200 X126.759 Y120.819 E22.14493
G0 F12000 X126.759 Y120.254
G1 F1200 X124.999 Y118.494 E22.22771
G0 F12000 X125.565 Y118.494
G1 F1200 X126.759 Y119.688 E22.28388
G0 F12000 X126.759 Y119.122
G1 F1200 X126.130 Y118.494 E22.31344
G0 F12000 X126.696 Y118.494
G1 F1200 X126.759 Y118.557 E22.31640
;LAYER:3
M106 S53
G0 F12000 X126.900 Y118.354 Z0.800
;TYPE:WALL-INNER
G1 F1200 X126.900 Y125.976 E22.56991
G1 X118.100 Y125.976 E22.86260
G1 X118.100 Y118.354 E23.11611
G1 X126.900 Y118.354 E23.40880
G0 F12000 X127.300 Y117.954
;TYPE:WALL-OUTER
G1 F1200 X127.300 Y126.376 E23.68891
G1 X117.700 Y126.376 E24.00821
G1 X117.700 Y117.954 E24.28833
G1 X127.300 Y117.954 E24.60763
G0 F12000 X126.731 Y118.493
;TYPE:SKIN
G1 F1200 X119.388 Y125.836 E24.95302
G0 F12000 X119.954 Y125.836
G1 F1200 X126.758 Y119.031 E25.27308
G0 F12000 X126.758 Y119.597
G1 F1200 X120.519 Y125.836 E25.56654
G0 F12000 X121.085 Y125.836
G1 F1200 X126.758 Y120.162 E25.83341
G0 F12000 X126.758 Y120.728
G1 F1200 X121.651 Y125.836 E26.07365
G0 F12000 X122.217 Y125.836
G1 F1200 X126.758 Y121.294 E26.28727
G0 F12000 X126.758 Y121.859
G1 F1200 X122.782 Y125.836 E26.47431
G0 F12000 X123.348 Y125.836
G1 F1200 X126.758 Y122.425 E26.63473
G0 F12000 X126.758 Y122.991
G1 F1200 X123.914 Y125.836 E26.76853
G0 F12000 X124.479 Y125.836
G1 F1200 X126.758 Y123.557 E26.87572
G0 F12000 X126.758 Y124.122
G1 F1200 X125.045 Y125.836 E26.95632
G0 F12000 X125.611 Y125.836
G1 F1200 X126.758 Y124.688 E27.01030
G0 F12000 X126.758 Y125.254
G1 F1200 X126.176 Y125.836 E27.03767
G1 F1800 E25.23767
G0 F12000 X126.165 Y118.493
G1 F1800 E27.03767
G1 F1200 X118.822 Y125.836 E27.38306
G0 F12000 X118.257 Y125.836
G1 F1200 X125.599 Y118.493 E27.72843
G0 F12000 X125.034 Y118.493
G1 F1200 X118.240 Y125.287 E28.04800
G0 F12000 X118.240 Y124.721
G1 F1200 X124.468 Y118.493 E28.34095
G0 F12000 X123.902 Y118.493
G1 F1200 X118.240 Y124.155 E28.60727
G0 F12000 X118.240 Y123.590
G1 F1200 X123.337 Y118.493 E28.84702
G0 F12000 X122.771 Y118.493
G1 F1200 X118.240 Y123.024 E29.06014
G0 F12000 X118.240 Y122.458
G1 F1200 X122.205 Y118.493 E29.24664
G0 F12000 X121.640 Y118.493
G1 F1200 X118.240 Y121.893 E29.40657
G0 F12000 X118.240 Y121.327
G1 F1200 X121.074 Y118.493 E29.53987
G0 F12000 X120.508 Y118.493
G1 F1200 X118.240 Y120.761 E29.64655
G0 F12000 X118.240 Y120.196
G1 F1200 X119.942 Y118.493 E29.72663
G0 F12000 X119.377 Y118.493
G1 F1200 X118.240 Y119.630 E29.78011
G0 F12000 X118.240 Y119.064
G1 F1200 X118.811 Y118.493 E29.80697
;LAYER:4
M106 S71
G1 F1800 E28.00697
G0 F12000 X121.636 Y118.494 Z1.000
;TYPE:FILL
G1 F1800 E29.80697
G1 F1200 X126.759 Y123.617 E30.04794
G1 F1800 E28.24794
G0 F12000 X126.758 Y121.489
G1 F1800 E30.04794
G1 F1200 X122.390 Y125.857 E30.25340
G0 F12000 X122.714 Y125.856
G1 F1200 X118.239 Y121.381 E30.46389
G1 F1800 E28.66389
G0 F12000 X118.240 Y123.723
G1 F1800 E30.46389
G1 F1200 X123.470 Y118.493 E30.70989
G1 F1800 E28.90989
G0 F12000 X126.900 Y118.354
;TYPE:WALL-INNER
G1 F1800 E30.70989
G1 F1200 X126.900 Y125.997 E30.96410
G1 X118.100 Y125.997 E31.25679
G1 X118.100 Y118.354 E31.51100
G1 X126.900 Y118.354 E31.80368
G0 F12000 X127.300 Y117.954
;TYPE:WALL-OUTER
G1 F1200 X127.300 Y126.397 E32.08450
G1 X117.700 Y126.397 E32.40380
G1 X117.700 Y117.954 E32.68461
G1 X127.300 Y117.954 E33.00391
;LAYER:5
M106 S89
G1 F1800 E31.20391
G0 F12000 X123.470 Y118.493 Z1.200
;TYPE:FILL
G1 F1800 E33.00391
G1 F1200 X118.240 Y123.723 E33.24991
G1 F1800 E31.44991
G0 F12000 X118.240 Y121.382
G1 F1800 E33.24991
G1 F1200 X122.735 Y125.877 E33.46134
G0 F12000 X122.370 Y125.877
G1 F1200 X126.758 Y121.489 E33.66774
G1 F1800 E31.86774
G0 F12000 X126.759 Y123.617
G1 F1800 E33.66774
G1 F1200 X121.636 Y118.494 E33.90871
G1 F1800 E32.10871
G0 F12000 X118.100 Y118.354
;TYPE:WALL-INNER
G1 F1800 E33.90871
G1 F1200 X126.900 Y118.354 E34.20140
G1 X126.900 Y126.018 E34.45631
G1 X118.100 Y126.018 E34.74900
G1 X118.100 Y118.354 E35.00390
G0 F12000 X117.700 Y117.954
;TYPE:WALL-OUTER
G1 F1200 X127.300 Y117.954 E35.32320
G1 X127.300 Y126.418 E35.60471
G1 X117.700 Y126.418 E35.92401
G1 X117.700 Y117.954 E36.20552
;LAYER:6
M106 S107
G1 F1800 E34.40552
G0 F12000 X118.240 Y121.382 Z1.400
;TYPE:FILL
G1 F1800 E36.20552
G1 F1200 X122.755 Y125.898 E36.41792
G0 F12000 X122.349 Y125.898
G1 F1200 X126.758 Y121.489 E36.62530
G1 F1800 E34.82530
G0 F12000 X126.758 Y123.616
G1 F1800 E36.62530
G1 F1200 X121.636 Y118.494 E36.86623
G1 F1800 E35.06623
G0 F12000 X123.470 Y118.493
G1 F1800 E36.86623
G1 F1200 X118.240 Y123.722 E37.11221
G1 F1800 E35.31221
G0 F12000 X118.101 Y126.038
;TYPE:WALL-INNER
G1 F1800 E37.11221
G1 F1200 X118.100 Y118.354 E37.36778
G1 X126.900 Y118.354 E37.66047
G1 X126.900 Y126.039 E37.91607
G1 X118.101 Y126.038 E38.20873
G0 F12000 X117.700 Y126.439
;TYPE:WALL-OUTER
G1 F1200 X117.700 Y117.954 E38.49094
G1 X127.300 Y117.954 E38.81024
G1 X127.300 Y126.439 E39.09245
G1 X117.700 Y126.439 E39.41175
;LAYER:7
M106 S127
G1 F1800 E37.61175
G0 F12000 X118.240 Y123.723 Z1.600
;TYPE:FILL
G1 F1800 E39.41175
G1 F1200 X123.470 Y118.493 E39.65775
G1 F1800 E37.85775
G0 F12000 X121.636 Y118.494
G1 F1800 E39.65775
G1 F1200 X126.759 Y123.617 E39.89872
G1 F1800 E38.09872
G0 F12000 X126.758 Y121.489
G1 F1800 E39.89872
G1 F1200 X122.330 Y125.918 E40.10702
G0 F12000 X122.774 Y125.917
G1 F1200 X118.239 Y121.381 E40.32036
G1 F1800 E38.52036
G0 F12000 X118.100 Y118.354
;TYPE:WALL-INNER
G1 F1800 E40.32036
G1 F1200 X126.900 Y118.354 E40.61305
G1 X126.900 Y126.058 E40.86928
G1 X118.100 Y126.058 E41.16197
G1 X118.100 Y118.354 E41.41821
G0 F12000 X117.700 Y117.954
;TYPE:WALL-OUTER
G1 F1200 X127.300 Y117.954 E41.73751
G1 X127.300 Y126.458 E42.02035
G1 X117.700 Y126.458 E42.33965
G1 X117.700 Y117.954 E42.62249
;LAYER:8
M106 S145
G1 F1800 E40.82249
G0 F12000 X118.240 Y121.382 Z1.800
;TYPE:FILL
G1 F1800 E42.62249
G1 F1200 X122.794 Y125.936 E42.83670
G0 F12000 X122.311 Y125.937
G1 F1200 X126.758 Y121.489 E43.04590
G1 F1800 E41.24590
G0 F12000 X126.758 Y123.616
G1 F1800 E43.04590
G1 F1200 X121.636 Y118.494 E43.28682
G1 F1800 E41.48682
G0 F12000 X123.470 Y118.493
G1 F1800 E43.28682
G1 F1200 X118.240 Y123.723 E43.53282
G1 F1800 E41.73282
G0 F12000 X118.100 Y126.077
;TYPE:WALL-INNER
G1 F1800 E43.53282
G1 F1200 X118.100 Y118.354 E43.78969
G1 X126.900 Y118.354 E44.08238
G1 X126.900 Y126.077 E44.33925
G1 X118.100 Y126.077 E44.63194
G0 F12000 X117.700 Y126.477
;TYPE:WALL-OUTER
G1 F1200 X117.700 Y117.954 E44.91541
G1 X127.300 Y117.954 E45.23471
G1 X127.300 Y126.477 E45.51819
G1 X117.700 Y126.477 E45.83748
;LAYER:9
M106 S163
G1 F1800 E44.03748
G0 F12000 X118.240 Y123.723 Z2.000
;TYPE:FILL
G1 F1800 E45.83748
G1 F1200 X123.470 Y118.493 E46.08349
G1 F1800 E44.28349
G0 F12000 X121.636 Y118.494
G1 F1800 E46.08349
G1 F1200 X126.759 Y123.617 E46.32446
G1 F1800 E44.52446
G0 F12000 X126.758 Y121.489
G1 F1800 E46.32446
G1 F1200 X122.291 Y125.956 E46.53457
G0 F12000 X122.813 Y125.955
G1 F1200 X118.239 Y121.381 E46.74972
G1 F1800 E44.94972
G0 F12000 X118.100 Y118.354
;TYPE:WALL-INNER
G1 F1800 E46.74972
G1 F1200 X126.900 Y118.354 E47.04241
G1 X126.900 Y126.096 E47.29991
G1 X118.100 Y126.096 E47.59260
G1 X118.100 Y118.354 E47.85010
G0 F12000 X117.700 Y117.954
